!!!!SEGMENT: artfugue-016a.krn
!!!COM: Bach, Johann Sebastian
!!!CDT: 1685/03/31-1750/07/28
!!!OPR@@DE: Die Kunst der Fuge
!!!OPR@EN: The Art of the Fugue
!!!OTL: Contrapunctus 16 (XIII), a 3. (rectus)
!!!ONB: #13 in 1878 edition (SMS1)
!!!ONB: #16 in 1926 edition (SMS2)
!!!ONB: Nach dem Berliner Autograph Nr. 12.
!!!SCA: BWV 1080
!!!voices: 3
!!!AGN:
**kern	**kern	**kern
*part1	*part1	*part1
*staff3	*staff2	*staff1
*I"	*I"	*I"
*clefF4	*clefC1	*clefG2
*mclefF4	*mclefG2	*mclefG2
*k[b-]	*k[b-]	*k[b-]
*d:	*d:	*d:
*M2/2	*M2/2	*M2/2
*met(c)	*met(c)	*met(c)
*mmet(c)	*mmet(c)	*mmet(c)
*MM132	*MM132	*MM132
*Xbrackettup	*Xbrackettup	*Xbrackettup
4r	4a	4r
=1	=1	=1
1r	4dd	1r
.	[4d	.
.	12dL]	.
.	12e	.
.	12fJ	.
.	12eL	.
.	12f	.
.	12gJ	.
=2	=2	=2
!	!LO:TUP:a	!
1r	12fL	1r
.	12g	.
.	12aJ	.
.	[4g	.
!	!LO:TUP:a	!
.	12gL]	.
.	12a	.
.	12b-J	.
!	!LO:TUP:a	!
.	12aL	.
.	12b-	.
.	12ccJ	.
=3	=3	=3
!	!LO:TUP:a	!
1r	12b-L	1r
.	12a	.
.	12gJ	.
.	[4a	.
!	!LO:TUP:a	!
.	12aL]	.
.	12g	.
.	12fJ	.
.	12gL	.
.	12f	.
.	12eJ	.
!!LO:LB:g=original
=4	=4	=4
*	*Xtuplet	*
!	!LO:N:vis=8.	!
2r	6fL	1r
!	!LO:N:vis=8.	!
.	12a	.
!	!LO:N:vis=8.	!
.	6dd	.
!	!LO:N:vis=16	!
.	12aJ	.
!	!LO:N:vis=8.	!
4r	(6fL	.
!	!LO:N:vis=16	!
.	12e)	.
!	!LO:N:vis=8.	!
4D	(6f	.
!	!LO:N:vis=16	!
.	12gJ)	.
=5	=5	=5
*	*tuplet	*
4AA	12aL	1r
.	12e	.
.	12gJ	.
[4A	12fL	.
.	12e	.
.	12dJ	.
!LO:TUP:a	!	!
12AL]	4c#X	.
12G	.	.
12FJ	.	.
!LO:TUP:a	!	!
12GL	4b-	.
12F	.	.
12EJ	.	.
=6	=6	=6
!LO:TUP:a	!	!
12FL	[4a	1r
12E	.	.
12DJ	.	.
!	!LO:TUP:a	!
[4E	12aL]	.
.	12g	.
.	12fJ	.
!LO:TUP:a	!	!
12EL]	[2g	.
12D	.	.
12C#XJ	.	.
12DL	.	.
12C#	.	.
12BBXJ	.	.
=7	=7	=7
!LO:TUP:a	!	!
12C#XL	4g_	1r
12D	.	.
12EJ	.	.
[4D	12gL]	.
.	12f	.
.	12eJ	.
*	*Xtuplet	*
!	!LO:N:vis=8.	!
!LO:TUP:a	!	!
12DL]	6fL	.
12E	.	.
!	!LO:N:vis=16	!
12FJ	12dd	.
!	!LO:N:vis=8.	!
!LO:TUP:a	!	!
12EL	6cc	.
12F	.	.
!	!LO:N:vis=16	!
12GJ	12b-J	.
!!LO:LB:g=original
=8	=8	=8
*Xtuplet	*	*
!LO:N:vis=8.	!	!
6FL	[2a	2r
!LO:N:vis=16	!	!
12D	.	.
!LO:N:vis=8.	!	!
6AA	.	.
!LO:N:vis=16	!	!
12DJ	.	.
!LO:N:vis=8.	!LO:N:vis=8.	!
6FL	6a]L	4r
!LO:N:vis=16	!LO:N:vis=16	!
12G	12b-	.
!LO:N:vis=8.	!LO:N:vis=8.	!
6F	6a	4dd
!LO:N:vis=16	!LO:N:vis=16	!
12EJ	12gJ	.
=9	=9	=9
*tuplet	*	*
12DL	4f	4aa
12C#X	.	.
12BBXJ	.	.
!LO:TUP:a	!	!
12C#L	4r	[>4a
12D	.	.
12EJ	.	.
!	!	!LO:TUP:a
4F	4r	12aL]
.	.	12bX
.	.	12ccJ
!	!	!LO:TUP:a
4GG#	4f	12bL
.	.	12cc
.	.	12ddJ
=10	=10	=10
*	*tuplet	*
!	!	!LO:TUP:a
4AA	12eL	12ccL
.	12f	12dd
.	12gJ	12eeJ
!	!	!LO:TUP:a
4r	12fL	[4dd
.	12e	.
.	12gJ	.
!	!	!LO:TUP:a
4r	12fL	12ddL]
.	12e	12ee
.	12dJ	12ffJ
!	!	!LO:TUP:a
[4A	12c#XL	12eeL
.	12d	12ff
.	12eJ	12ggJ
=11	=11	=11
!	!	!LO:TUP:a
4A]	4d	12ffL
.	.	12ee
.	.	12ddJ
!LO:TUP:a	!	!
12G#L	4r	[4ee
12AX	.	.
12F#XJ	.	.
!	!	!LO:TUP:a
2G#t	4r	12eeL]
.	.	12dd
.	.	12ccJ
!	!	!LO:TUP:a
.	4f	12ddL
.	.	12cc
.	.	12bXJ
!!LO:LB:g=original
=12	=12	=12
*	*	*Xtuplet
!	!	!LO:N:vis=8.
[1A	4e	6ccL
!	!	!LO:N:vis=16
.	.	12ee
!	!	!LO:N:vis=8.
.	4c	6aa
!	!	!LO:N:vis=16
.	.	12eeJ
!	!	!LO:N:vis=8.
.	4e	6ccL
!	!	!LO:N:vis=16
.	.	12bX
*	*Xtuplet	*
!	!LO:N:vis=8.	!LO:N:vis=8.
.	6aL	6cc
!	!LO:N:vis=16	!LO:N:vis=16
.	12b-J	12ddJ
=13	=13	=13
*Xtuplet	*	*
!LO:N:vis=8.	!	!
6AL]	4cc	2ee
!LO:N:vis=16	!	!
12E	.	.
!LO:N:vis=8.	!	!
6C	4a	.
!LO:N:vis=16	!	!
12EJ	.	.
!LO:N:vis=8.	!	!
6AL	4cc	4r
!LO:N:vis=16	!	!
12B-	.	.
!LO:N:vis=8.	!	!
6A	4ee	4cc#X
!LO:N:vis=16	!	!
12GJ	.	.
=14	=14	=14
!LO:N:vis=8.	!	!
6FL	4dd	4dd
!LO:N:vis=16	!	!
12A	.	.
!LO:N:vis=8.	!	!LO:N:vis=8.
6d	4d	6ffL
!LO:N:vis=16	!	!LO:N:vis=16
12B-J	.	12eeJ
!LO:N:vis=8.	!	!
6FL	2r	4dd
!LO:N:vis=16	!	!
12D	.	.
!LO:N:vis=8.	!	!
6E	.	4ccc
!LO:N:vis=16	!	!
12F#XJ	.	.
=15	=15	=15
!LO:N:vis=8.	!	!
6GL	4r	4bb-
!LO:N:vis=16	!	!
12D	.	.
!LO:N:vis=8.	!	!
6BB-	4g	4dd
!LO:N:vis=16	!	!
12DJ	.	.
!LO:N:vis=8.	!	!
6GL	4b-	4r
!LO:N:vis=16	!	!
12A	.	.
!LO:N:vis=8.	!	!
6G	4dd	4bX
!LO:N:vis=16	!	!
12FJ	.	.
!!LO:LB:g=original
=16	=16	=16
!LO:N:vis=8.	!	!
6EL	4cc	4cc
!LO:N:vis=16	!	!
12G	.	.
!LO:N:vis=8.	!	!LO:N:vis=8.
6c	4c	6eeL
!LO:N:vis=16	!	!LO:N:vis=16
12GJ	.	12ddJ
!LO:N:vis=8.	!	!
6EL	2r	4cc
!LO:N:vis=16	!	!
12C	.	.
!LO:N:vis=8.	!	!
6D	.	4bb-X
!LO:N:vis=16	!	!
12EJ	.	.
=17	=17	=17
!LO:N:vis=8.	!	!LO:N:vis=4.
6FL	1r	3aa
!LO:N:vis=16	!	!
12G/	.	.
!LO:N:vis=8.	!	!
6F	.	.
!	!	!LO:N:vis=8
.	.	6gg
!LO:N:vis=16	!	!
12EJ	.	.
!LO:N:vis=8.	!	!LO:N:vis=8.
6DL	.	6ffL
!LO:N:vis=16	!	!LO:N:vis=16
12E	.	12ee
!LO:N:vis=8.	!	!LO:N:vis=8.
6F	.	6dd
!LO:N:vis=16	!	!LO:N:vis=16
12DJ	.	12ffJ
=18	=18	=18
!LO:N:vis=8.	!	!
6GL	1r	4b-
!LO:N:vis=16	!	!
12A	.	.
!LO:N:vis=8.	!	!
6G	.	4bb-
!LO:N:vis=16	!	!
12FJ	.	.
!LO:N:vis=8.	!	!
6EL	.	4gg
!LO:N:vis=16	!	!
12F	.	.
!LO:N:vis=8.	!	!
6G	.	4ee
!LO:N:vis=16	!	!
12EJ	.	.
=19	=19	=19
!LO:N:vis=8.	!	!LO:N:vis=4.
6AL	2r	3cc#X
!LO:N:vis=16	!	!
12B-	.	.
!LO:N:vis=8.	!	!
6A	.	.
!	!	!LO:N:vis=16
.	.	12ddL
!LO:N:vis=16	!	!LO:N:vis=16
12GJ	.	12eeJ
!LO:N:vis=8.	!	!LO:N:vis=8.
6FL	4r	6aL
!LO:N:vis=16	!	!LO:N:vis=16
12E	.	12ee
!LO:N:vis=8.	!	!LO:N:vis=8.
6D	4d	6ff
!LO:N:vis=16	!	!LO:N:vis=16
12EJ	.	12ggJ
!!LO:LB:g=original
=20	=20	=20
!LO:N:vis=8.	!	!LO:N:vis=4.
6FL	4A	3aa
!LO:N:vis=16	!	!
12E	.	.
!LO:N:vis=8.	!	!
6F	[4a	.
!	!	!LO:N:vis=8
.	.	6gg
!LO:N:vis=16	!	!
12GJ	.	.
*	*tuplet	*tuplet
!	!LO:TUP:a	!LO:TUP:a
4A	12aL]	12ffL
.	12g	12ee
.	12fJ	12ddJ
*	*	*Xtuplet
!	!	!LO:N:vis=8.
4C#X	12gL	6eeL
.	12f	.
!	!	!LO:N:vis=16
.	12eJ	12bb-J
=21	=21	=21
*	*	*tuplet
!	!	!LO:TUP:a
4D	12fL	12aaL
.	12e	12gg
.	12dJ	12ffJ
!	!	!LO:TUP:a
4B-	[4e	12ggL
.	.	12cc#X
.	.	12eeJ
!	!	!LO:TUP:a
4r	12eL]	12ggL
.	12d	12ff
.	12c#XJ	[12eeJ
*	*	*Xtuplet
!	!	!LO:N:vis=8.
4G#	12dL	6ee]L
.	12c#	.
!	!	!LO:N:vis=16
.	12BXJ	12ffJ
=22	=22	=22
*	*	*tuplet
!	!	!LO:TUP:a
4A	12c#XL	12eeL
.	12d	12ff
.	12eJ	12ggJ
!	!	!LO:TUP:a
4r	[4d	12ffL
.	.	12dd
.	.	12aJ
!	!	!LO:TUP:a
4r	12dL]	12bXL
.	12e	12cc#X
.	12fJ	12ddJ
!	!	!LO:TUP:a
4A	12eL	12cc#L
.	12f	12dd
.	12gJ	12eeJ
=23	=23	=23
*	*Xtuplet	*
!	!LO:N:vis=8.	!
4D	6fL	4dd
!	!LO:N:vis=16	!
.	12d	.
!	!LO:N:vis=8.	!
4r	6A	4ff
!	!LO:N:vis=16	!
.	12dJ	.
!	!LO:N:vis=8.	!
4r	6fL	4dd
!	!LO:N:vis=16	!
.	12g	.
!	!LO:N:vis=8.	!
4D	6f	4a
!	!LO:N:vis=16	!
.	12eJ	.
!!LO:LB:g=original
=24	=24	=24
*	*	*Xtuplet
!	!	!LO:N:vis=8.
4G	4d	6b-L
!	!	!LO:N:vis=16
.	.	12dd
!	!LO:N:vis=8.	!LO:N:vis=8.
4r	6eL	6gg
!	!LO:N:vis=16	!LO:N:vis=16
.	12f#XJ	12ddJ
!	!	!LO:N:vis=8.
4r	4g/	6b-L
!	!	!LO:N:vis=16
.	.	12g
!	!	!LO:N:vis=8.
4D	4f	6a
!	!	!LO:N:vis=16
.	.	12bXJ
=25	=25	=25
!	!LO:N:vis=8.	!
4C	6e-L	4cc
!	!LO:N:vis=16	!
.	12c	.
!	!LO:N:vis=8.	!
4r	6G	4ee-
!	!LO:N:vis=16	!
.	12cJ	.
!	!LO:N:vis=8.	!
4r	6e-L	4cc
!	!LO:N:vis=16	!
.	12f	.
!	!LO:N:vis=8.	!
4C	6e-	4g
!	!LO:N:vis=16	!
.	12dJ	.
=26	=26	=26
!	!	!LO:N:vis=8.
4F	4c	6aL
!	!	!LO:N:vis=16
.	.	12cc
!	!LO:N:vis=8.	!LO:N:vis=8.
4r	6dL	6ff
!	!LO:N:vis=16	!LO:N:vis=16
.	12enJ	12ccJ
!	!	!LO:N:vis=8.
4r	4f	6aL
!	!	!LO:N:vis=16
.	.	12f
!	!	!LO:N:vis=8.
4C	4e-	6g
!	!	!LO:N:vis=16
.	.	12aJ
=27	=27	=27
!	!LO:N:vis=8.	!
4G	6dL	4b-
!	!LO:N:vis=16	!
.	12c	.
!	!LO:N:vis=8.	!
4r	6B-	[4bb-
!	!LO:N:vis=16	!
.	12cJ	.
*	*	*tuplet
!	!LO:N:vis=8.	!LO:TUP:a
2r	6dL	12bb-L]
.	.	12aa-
!	!LO:N:vis=16	!
.	12e-	12ggJ
!	!LO:N:vis=8.	!LO:TUP:a
.	6f	12aa-L
.	.	12gg
!	!LO:N:vis=16	!
.	12dJ	12ffJ
!!LO:LB:g=original
=28	=28	=28
!	!	!LO:TUP:a
2r	[4e-	12ggL
.	.	12ff
.	.	12ee-J
*	*tuplet	*
.	12e-L]	[4ff
.	12d	.
.	12cJ	.
!	!	!LO:TUP:a
4r	12dL	12ffL]
.	12c	12ee-
.	12B-J	12ddJ
!	!	!LO:TUP:a
4F	12cL	12ee-L
.	12B-	12dd
.	12AJ	12ccJ
=29	=29	=29
4B-	12B-L	4cc
.	12b-	.
.	12ccJ	.
!	!LO:TUP:a	!
[4BB-	12ddL	4ff
.	12cc	.
.	12b-J	.
*tuplet	*	*
12BB-L]	[2f	4dd
12C	.	.
12DJ	.	.
12CL>	.	4a
12D	.	.
12E-J	.	.
=30	=30	=30
!LO:TUP:a	!LO:TUP:a	!
12DL	12fL]	[1b-
12E-	12g	.
12FJ	12a-J	.
!	!LO:TUP:a	!
[4E-	12gL	.
.	12f	.
.	12a-J	.
!LO:TUP:a	!	!
12E-L]	4g	.
12F	.	.
12GJ	.	.
!LO:TUP:a	!	!
12FL	4d	.
12G	.	.
12A-J	.	.
=31	=31	=31
!LO:TUP:a	!	!
12GL	12e-L	1b-_
12F	12d	.
12E-J	12cJ	.
[4F	12dL	.
.	12e-	.
.	12cJ	.
!LO:TUP:a	!	!
12FL]	4d	.
12E-X	.	.
12DJ	.	.
!LO:TUP:a	!	!
12E-L	4g/	.
12D	.	.
12CJ	.	.
!!LO:LB:g=original
=32	=32	=32
*Xtuplet	*	*
!LO:N:vis=8.	!	!
6DL	12fL	2b-]
.	12B-	.
!LO:N:vis=16	!	!
12F	12dJ	.
!LO:N:vis=8.	!	!
6B-	12fL	.
.	12d	.
!LO:N:vis=16	!	!
12FJ	12fJ	.
*	*Xtuplet	*
!LO:N:vis=8.	!LO:N:vis=8.	!
6DL	6b-L	4r
!LO:N:vis=16	!LO:N:vis=16	!
12C	12f	.
!LO:N:vis=8.	!LO:N:vis=8.	!
6D	6f	4b-
!LO:N:vis=16	!LO:N:vis=16	!
12EJ	12gJ	.
=33	=33	=33
*	*tuplet	*
!	!LO:TUP:a	!
4F	12aL	4f
.	12b-	.
.	12ccJ	.
!	!LO:TUP:a	!
4D	12b-L	[4ff
.	12cc	.
.	12ddJ	.
!LO:N:vis=8.	!	!LO:TUP:a
6AAL	[2f	12ffL]
.	.	12ee-
!LO:N:vis=16	!	!
12BB-	.	12ddJ
!LO:N:vis=8.	!	!LO:TUP:a
6C	.	12ee-L
.	.	12dd
!LO:N:vis=16	!	!
12AAJ	.	12ccJ
=34	=34	=34
!	!	!LO:TUP:a
[4BB-	1f_	12ddL
.	.	12cc
.	.	12b-J
*tuplet	*	*
12BB-L]	.	[4cc
12AA	.	.
12GGJ	.	.
!	!	!LO:TUP:a
12AAL	.	12ccL]
12BB-	.	12b-
12CJ	.	12aJ
!	!	!LO:TUP:a
12DL	.	12b-L
12C	.	12a
12BB-J	.	12gJ
=35	=35	=35
!LO:TUP:a	!	!LO:TUP:a
12CL	1f_	12aL
12D	.	12b-
12E-J	.	12ccJ
!LO:TUP:a	!	!
12DL	.	[4b-
12E-	.	.
12CJ	.	.
!	!	!LO:TUP:a
12DL	.	12b-L]
12C	.	12cc
12BB-J	.	12ddJ
!	!	!LO:TUP:a
12AAL	.	12ccL
12BB-	.	12dd
12CJ	.	12ee-J
!!LO:LB:g=original
=36	=36	=36
*	*	*Xtuplet
!	!	!LO:N:vis=8.
4BB-	2f]	6ddL
!	!	!LO:N:vis=16
.	.	12b-
!	!	!LO:N:vis=8.
4D	.	6f
!	!	!LO:N:vis=16
.	.	12b-J
!	!	!LO:N:vis=8.
4F	4r	6ddL
!	!	!LO:N:vis=16
.	.	12ee-
!	!	!LO:N:vis=8.
4BB-	4d	6dd
!	!	!LO:N:vis=16
.	.	12ccJ
=37	=37	=37
*	*	*tuplet
!	!	!LO:TUP:a
4E-	4g	12b-L
.	.	12g
.	.	12aJ
!	!	!LO:TUP:a
4r	[4G	12b-L
.	.	12cc
.	.	12ddJ
*	*	*Xtuplet
!	!	!LO:N:vis=8.
4C	12GL]	6ee-L
.	12A	.
!	!	!LO:N:vis=16
.	12B-J	12dd
!	!	!LO:N:vis=8.
4r	12AL	6cc
.	12B-	.
!	!	!LO:N:vis=16
.	12cJ	12ee-J
=38	=38	=38
*	*	*tuplet
!	!	!LO:TUP:a
[1G	12B-L	12ddL
.	12c	12ee-
.	12dJ	12ffJ
!	!	!LO:TUP:a
.	[4c	12ee-L
.	.	12gg
.	.	12ee-J
!	!	!LO:TUP:a
.	12cL]	12ccL
.	12d	12bX
.	12e-J	12aJ
!	!	!LO:TUP:a
.	12dL	12bL
.	12e-	12cc
.	12fJ	12ddJ
=39	=39	=39
!	!	!LO:TUP:a
1G_	12e-L	12ccL
.	12d	12b-X
.	12cJ	12aJ
!	!	!LO:TUP:a
.	[4d	12b-L
.	.	12g
.	.	12aJ
!	!	!LO:TUP:a
.	12dL]	12b-L
.	12c	12cc
.	12B-J	12ddJ
!	!	!LO:TUP:a
.	12cL	12ee-L
.	12B-	12dd
.	12AJ	12ccJ
!!LO:LB:g=original
=40	=40	=40
*	*Xtuplet	*
!	!LO:N:vis=8.	!LO:TUP:a
1G_	6B-L	12ddL
.	.	12g
!	!LO:N:vis=16	!
.	12d	12b-J
!	!LO:N:vis=8.	!LO:TUP:a
.	6g	12ddL
.	.	12b-
!	!LO:N:vis=16	!
.	12dJ	12ddJ
*	*	*Xtuplet
!	!LO:N:vis=8.	!LO:N:vis=8.
.	6B-L	6ggL
!	!LO:N:vis=16	!LO:N:vis=16
.	12A	12ff#X
!	!LO:N:vis=8.	!LO:N:vis=8.
.	6B-	6gg
!	!LO:N:vis=16	!LO:N:vis=16
.	12cJ	12aaJ
=41	=41	=41
!	!	!LO:N:vis=8.
2G]	4d	6bb-L
!	!	!LO:N:vis=16
.	.	12gg
!	!	!LO:N:vis=8.
.	4B-	6dd
!	!	!LO:N:vis=16
.	.	12ggJ
!	!	!LO:N:vis=8.
4r	4d	6bb-L
!	!	!LO:N:vis=16
.	.	12ccc
!	!LO:N:vis=8.	!LO:N:vis=8.
4G	6gL	6bb-
!	!LO:N:vis=16	!LO:N:vis=16
.	12fJ	12aaJ
=42	=42	=42
!	!LO:N:vis=8.	!
2c	6enL	4gg
!	!LO:N:vis=16	!
.	12g	.
!	!LO:N:vis=8.	!
.	6cc	4ee
!	!LO:N:vis=16	!
.	12gJ	.
!	!LO:N:vis=8.	!
4r	6eL	4gg
!	!LO:N:vis=16	!
.	12c	.
!	!LO:N:vis=8.	!
4G	6d	4bb-
!	!LO:N:vis=16	!
.	12eJ	.
=43	=43	=43
!	!	!LO:N:vis=8.
2F	4f	6aaL
!	!	!LO:N:vis=16
.	.	12ff
!	!	!LO:N:vis=8.
.	4A	6cc
!	!	!LO:N:vis=16
.	.	12ffJ
!	!	!LO:N:vis=8.
4r	4c	6aaL
!	!	!LO:N:vis=16
.	.	12bb-
!	!LO:N:vis=8.	!LO:N:vis=8.
4F	6fL	6aa
!	!LO:N:vis=16	!LO:N:vis=16
.	12eJ	12ggJ
!!LO:LB:g=original
=44	=44	=44
!	!LO:N:vis=8.	!
2B-	6dL	4ff
!	!LO:N:vis=16	!
.	12f	.
!	!LO:N:vis=8.	!
.	6b-	4dd
!	!LO:N:vis=16	!
.	12fJ	.
!	!LO:N:vis=8.	!
4r	6dL	4ff
!	!LO:N:vis=16	!
.	12e	.
!	!LO:N:vis=8.	!
4F	6c#X	4aa
!	!LO:N:vis=16	!
.	12dJ	.
=45	=45	=45
*Xtuplet	*	*
!LO:N:vis=8.	!	!
6EL	2e	4gg
!LO:N:vis=16	!	!
12G	.	.
!LO:N:vis=8.	!	!
6B-	.	4dd
!LO:N:vis=16	!	!
12GJ	.	.
!LO:N:vis=8.	!	!
6EL	4r	4cc#X
!LO:N:vis=16	!	!
12F	.	.
!LO:N:vis=8.	!	!
6E	4b-	4r
!LO:N:vis=16	!	!
12DJ	.	.
=46	=46	=46
8C#XL	4a	8r
8E	.	16cc#XLL
.	.	16ddJJ
8G	4r	16eeLL
.	.	16ff
8EJ	.	16gg
.	.	16aaJJ
!LO:N:vis=8.	!LO:N:vis=8.	!
6C#L	6r	4bb-
!LO:N:vis=16	!LO:N:vis=16	!
12D	12ff	.
!LO:N:vis=8.	!	!
*	*tuplet	*
!	!LO:TUP:a	!
6C#	12eeL	4r
.	12ffL	.
!LO:N:vis=16	!	!
12BBXJ	12ggJJ	.
=47	=47	=47
*	*	*tuplet
!LO:N:vis=8.	!	!LO:TUP:a
6AAL	4cc#X	12r
.	.	12eeL
!LO:N:vis=16	!	!
12C#X	.	12aaJ
!LO:N:vis=8.	!	!LO:TUP:a
6E	4r	12ggL
.	.	12ff
!LO:N:vis=16	!	!
12C#J	.	12eeJ
!LO:N:vis=8.	!	!LO:TUP:a
6AAL	4r	12ffL
.	.	12ee
!LO:N:vis=16	!	!
12BB-	.	12ddJ
!LO:N:vis=8.	!	!LO:TUP:a
6AA	4e	12cc#XL
.	.	12dd
!LO:N:vis=16	!	!
12GGJ	.	12eeJ
!!LO:LB:g=original
=48	=48	=48
*tuplet	*	*
12FFL	4A	4ff
12AA	.	.
12DJ	.	.
!LO:TUP:a	!	!
12FL	[4a	4r
12E	.	.
12DJ	.	.
*Xtuplet	*	*
!LO:N:vis=4.	!LO:TUP:a	!
12%5C#t	12aL]	4r
.	12g	.
.	12fJ	.
.	12gL	4b-
.	12f	.
!LO:N:vis=16	!	!
24BBXLL	12eJ	.
!LO:N:vis=16	!	!
24C#JJ	.	.
=49	=49	=49
4D	12fL	12aL
.	12e	12g
.	12dJ	12fJ
4B-X	[4e	12gL
.	.	12a
.	.	12fJ
*	*	*Xtuplet
!	!	!LO:N:vis=16
4r	12eL]	12gLL
!	!	!LO:N:vis=16
.	12d	12fJJ
!	!	!LO:N:vis=4
.	12c#XJ	6.e
4G#	12dL	.
.	12c#	.
.	12BXJ	12f
=50	=50	=50
!LO:N:vis=8.	!	!
6AL	12c#XL	4e
.	12d	.
!LO:N:vis=16	!	!
12GnJ	12eJ	.
*tuplet	*	*
!LO:TUP:a	!	!
12FL	[4d	4r
12G	.	.
12AJ	.	.
*Xtuplet	*	*
!LO:N:vis=8.	!	!
6B-L	12dL]	4r
.	12e	.
!LO:N:vis=16	!	!
12DJ	12fJ	.
*tuplet	*	*
!LO:TUP:a	!	!
12C#XL	12eL	4ee
12D	12f	.
12EJ	12gJ	.
=51	=51	=51
*	*Xtuplet	*
!	!LO:N:vis=8.	!
4D	6fL	4a
!	!LO:N:vis=16	!
.	12d	.
!	!LO:N:vis=8.	!
4F	6A	4r
!	!LO:N:vis=16	!
.	12dJ	.
!	!LO:N:vis=8.	!
4A	6fL	4r
!	!LO:N:vis=16	!
.	12g	.
!	!LO:N:vis=8.	!
4D	6f	4a
!	!LO:N:vis=16	!
.	12eJ	.
!!LO:LB:g=original
=52	=52	=52
!	!	!LO:N:vis=8.
4G	4d	6b-L
!	!	!LO:N:vis=16
.	.	12dd
!	!	!LO:N:vis=8.
4r	4b-	6gg
!	!	!LO:N:vis=16
.	.	12ddJ
!	!	!LO:N:vis=8.
4r	4g	6b-L
!	!	!LO:N:vis=16
.	.	12g
!	!	!LO:N:vis=8.
4G	4d	6a
!	!	!LO:N:vis=16
.	.	12b-J
=53	=53	=53
!	!LO:N:vis=8.	!
4GG	6gL	4e
!	!LO:N:vis=16	!
.	12e	.
!	!LO:N:vis=8.	!
4G	6BX	4r
!	!LO:N:vis=16	!
.	12eJ	.
!	!LO:N:vis=8.	!
4BX	6gL	4r
!	!LO:N:vis=16	!
.	12a	.
!	!LO:N:vis=8.	!
4E	6g	4bX
!	!LO:N:vis=16	!
.	12fJ	.
=54	=54	=54
!	!	!LO:N:vis=8.
4A	4e	6ccL
!	!	!LO:N:vis=16
.	.	12ee
!	!	!LO:N:vis=8.
4r	4cc	6aa
!	!	!LO:N:vis=16
.	.	12eeJ
!	!	!LO:N:vis=8.
4r	4a	6ccL
!	!	!LO:N:vis=16
.	.	12a
!	!	!LO:N:vis=8.
4A	4e	6b-X
!	!	!LO:N:vis=16
.	.	12ccJ
=55	=55	=55
!	!LO:N:vis=8.	!
4AA	6aL	4f
!	!LO:N:vis=16	!
.	12f	.
!	!LO:N:vis=8.	!
4A	6c	4r
!	!LO:N:vis=16	!
.	12fJ	.
!	!LO:N:vis=8.	!
4c	6aL	4r
!	!LO:N:vis=16	!
.	12b-	.
!	!LO:N:vis=8.	!
4F	6a	4cc
!	!LO:N:vis=16	!
.	12gJ	.
!!LO:LB:g=original
=56	=56	=56
!	!	!LO:N:vis=8.
4B-	2f	6ddL
!	!	!LO:N:vis=16
.	.	12ff
!	!	!LO:N:vis=8.
4d	.	6bb-
!	!	!LO:N:vis=16
.	.	12ffJ
!	!	!LO:N:vis=8.
4B-	4r	6ddL
!	!	!LO:N:vis=16
.	.	12b-
!	!	!LO:N:vis=8.
4F#X	4a	6cc
!	!	!LO:N:vis=16
.	.	12ddJ
=57	=57	=57
!	!LO:N:vis=8.	!
4G	6b-L	4g
!	!LO:N:vis=16	!
.	12g	.
!	!LO:N:vis=8.	!
4B-	6d	4r
!	!LO:N:vis=16	!
.	12gJ	.
!	!LO:N:vis=8.	!
4G	6b-L	4r
!	!LO:N:vis=16	!
.	12cc	.
!	!LO:N:vis=8.	!
4D	6b-	4dd
!	!LO:N:vis=16	!
.	12aJ	.
=58	=58	=58
*Xtuplet	*	*
!LO:N:vis=8.	!	!
6EL	4g	4cc#X
!LO:N:vis=16	!	!
12G	.	.
!LO:N:vis=8.	!	!
6B-	4r	4r
!LO:N:vis=16	!	!
12GJ	.	.
!LO:N:vis=8.	!LO:N:vis=8	!LO:N:vis=8
6EL	12.r	12.r
!	!LO:N:vis=16	!LO:N:vis=16
.	24r	24r
!LO:N:vis=16	!LO:N:vis=16	!LO:N:vis=16
12C#X	12e	12gg
!LO:N:vis=8.	!LO:N:vis=8.	!LO:N:vis=8.
6D	6fL	6ffL
!LO:N:vis=16	!LO:N:vis=16	!LO:N:vis=16
12EJ	12gJ	12eeJ
=59	=59	=59
2GG;	2c#X;	2bb-;
4r	4r	4r
*	*	*brackettup
*	*	*tuplet
!	!	!LO:TUP:a
4G	4e	12r
.	.	12bb-L
.	.	12cc#XJ
!!LO:LB:g=original
=60	=60	=60
*tuplet	*tuplet	*
!LO:TUP:a	!LO:TUP:a	!
12FL	12fL	[4dd
12E	12g	.
12DJ	12aJ	.
!	!LO:TUP:a	!LO:TUP:a
[4G	12b-L	12ddL]
.	12g	12ee
.	12aJ	12ffJ
!LO:TUP:a	!LO:TUP:a	!
12GL]	12bXL	[4eet
12F	12a	.
12EJ	12bJ	.
!	!LO:TUP:a	!LO:TUP:a
4A	12cc#XL	12eeL]
.	12b	12dd
.	12cc#J	12eeJ
=61	=61	=61
!	!LO:TUP:a	!
4D	12ddL	[4ff
.	12f	.
.	12gJ	.
!	!LO:TUP:a	!LO:TUP:a
4r	12aL	12ffL]
.	12g	12gg
.	12fJ	12aaJ
!	!LO:TUP:a	!
4r	12eL	[4ggT
.	12g	.
.	12aJ	.
!	!LO:TUP:a	!LO:TUP:a
4G	12b-L	12ggL]
.	12a	12ff
.	12gJ	12ggJ
=62	=62	=62
4d	12fL	[1aa
.	12d	.
.	12fJ	.
!	!LO:TUP:a	!
[4D	12aL	.
.	12f	.
.	12aJ	.
!LO:TUP:a	!LO:TUP:a	!
12DL]	12ddL	.
12E	12cc#X	.
12FJ	12bXJ	.
!LO:TUP:a	!LO:TUP:a	!
12EL	12cc#L	.
12F	12dd	.
12GJ	12eeJ	.
=63	=63	=63
!LO:TUP:a	!	!LO:TUP:a
12FL	[1dd	12aaL]
12G	.	12bb-
12AJ	.	12cccJ
!	!	!LO:TUP:a
[4G	.	12bb-L
.	.	12gg
.	.	12ddJ
!LO:TUP:a	!	!LO:TUP:a
12GL]	.	12eeL
12A	.	12ff#X
12B-J	.	12ggJ
!LO:TUP:a	!	!LO:TUP:a
12AL	.	12ff#L
12B-	.	12gg
12cJ	.	12aaJ
!!LO:LB:g=original
=64	=64	=64
!LO:TUP:a	!	!
12B-L	4dd_	12ggL
12A	.	12ffn
12GJ	.	12eeJ
[4A	12ddL]	12ffL
.	12cc#X	12ee
.	12bXJ	12ddJ
!LO:TUP:a	!	!
12AL]	4cc#	4ee
12G	.	.
12FJ	.	.
!LO:TUP:a	!	!
12GL	4r	4r
12F	.	.
12EJ	.	.
=65	=65	=65
*Xtuplet	*	*
!LO:N:vis=8.	!LO:TUP:a	!
6FL	12r	2r
.	12ddL	.
!LO:N:vis=16	!	!
12A	12aJ	.
!LO:N:vis=8.	!LO:TUP:a	!
6d	12fL>	.
.	12a	.
!LO:N:vis=16	!	!
12AJ	12fJ	.
!LO:N:vis=8.	!	!
6FL	12dL	4r
.	12f	.
!LO:N:vis=16	!	!
12E	12aJ	.
!LO:N:vis=8.	!LO:TUP:a	!
6F	12ddL	4dd
.	12cc#X	.
12GJ	12bXJ	.
=66	=66	=66
[1A	12cc#XL	4a
.	12a	.
.	12eJ	.
.	12c#XL	[4aa
.	12d	.
.	12eJ	.
!	!	!LO:TUP:a
.	12fL	12aaL]
.	12e	12gg
.	12dJ	12ffJ
*	*Xtuplet	*
!	!LO:N:vis=8.	!LO:TUP:a
.	6eL	12ggL
.	.	12ff
!	!LO:N:vis=16	!
.	12cc#XJ	12eeJ
=67	=67	=67
!	!	!LO:TUP:a
1A_	[4dd	12ffL
.	.	12ee
.	.	12ddJ
*	*tuplet	*
!	!LO:TUP:a	!
.	12ddL]	[4ee
.	12cc#X	.
.	12bXJ	.
!	!LO:TUP:a	!LO:TUP:a
.	12cc#L	12eeL]
.	12dd	12dd
.	12eeJ	12cc#XJ
!	!LO:TUP:a	!LO:TUP:a
.	12ffL	12ddL
.	12ee	12cc#
.	12ddJ	12bXJ
!!LO:LB:g=original
=68	=68	=68
*	*Xtuplet	*
!	!LO:N:vis=8.	!LO:TUP:a
4A]	6eeL	12cc#XL
.	.	12dd
!	!LO:N:vis=16	!
.	12gJ	12eeJ
*	*tuplet	*
4B-	12fL	[4dd
.	12e	.
.	12dJ	.
!	!	!LO:TUP:a
4G	2b-T	12ddL]
.	.	12ee
.	.	12ffJ
!	!	!LO:TUP:a
4C#X	.	12eeL
.	.	12ff
.	.	12ggJ
=69	=69	=69
*tuplet	*	*Xtuplet
!	!	!LO:N:vis=8.
12DL	4a	6ffL
12BB-	.	.
!	!	!LO:N:vis=16
12DJ	.	12dd
*	*Xtuplet	*
!LO:TUP:a	!	!LO:N:vis=8.
12FL	4r	6a
12D	.	.
!	!	!LO:N:vis=16
12FJ	.	12ddJ
!	!LO:N:vis=8	!LO:N:vis=8.
4A	12.r	6ffL
!	!LO:N:vis=16	!
.	24r	.
!	!LO:N:vis=16	!LO:N:vis=16
.	12b-	12gg
!	!LO:N:vis=8.	!LO:N:vis=8.
4AA	6aL	6ff
!	!LO:N:vis=16	!LO:N:vis=16
.	12gJ	12eeJ
=70	=70	=70
*	*tuplet	*tuplet
!	!	!LO:TUP:a
[4D	12fL	12ddL
.	12e	12cc
.	12dJ	12b-J
!LO:TUP:a	!	!
12DL]	2a	[4cc
12F#X	.	.
12GJ	.	.
!LO:TUP:a	!	!LO:TUP:a
12AL	.	12ccL]
12B-	.	12b-
12cJ	.	12aJ
*Xtuplet	*	*
!LO:N:vis=8.	!LO:TUP:a	!LO:TUP:a
6dL	12gL	12b-L
.	12a	12cc
!LO:N:vis=16	!	!
12DJ	12b-J	12ddJ
=71	=71	=71
2.D;	2.f#X;	2.a;
==	==	==
*-	*-	*-
!!!RDF**kern: > = above
!!!RDF**kern: < = below
!!!system-decoration: [(s1,s2,s3,s4)]
!!!URL-pdf: https://vmirror.imslp.org/files/imglnks/usimg/8/88/IMSLP504269-PMLP05843-BGA-25.1.pdf#page=61 @{SMS1}
!!!URL-pdf: https://s9.imslp.org/files/imglnks/usimg/1/1d/IMSLP469177-PMLP5843-Bach,_J.S._-_The_Art_of_the_Fugue.pdf#page=83 @{SMS2}
!!!URL-youtube: https://www.youtube.com/watch?v=OMtjlaDEMdI&t=3299s Netherlands Bach Society/Malinowski
!!!URL-youtube: https://www.youtube.com/watch?v=N6sUlZa-IrU&t=3299s Netherlands Bach Society
!!!URL-youtube: https://www.youtube.com/watch?v=uhg6ut5UBKM&t=1s Fretwork (2005)
!!!SMS: @{SMS1}
!!!SMS: Bach-Gesellschaft Ausgabe, Band 25.1 Leipzig: Breitkopf und Härtel, 1878. Plate B.W. XXV (1).
!!!SMS2: Bach-Gesellschaft Ausgabe, Band 47 Leipzig: Breitkopf und Härtel, 1926. Plate B.W. XLVII.
!!!PED: Wilhelm Rust
!!!PED-ODT: 1822-1892
!!!ONB: Die Kunst der Fuge nach dem Berliner Autograph in Anordnung und Lesarten
!!!ENC: Craig Stuart Sapp
!!!END: 2024/03/24
!!!EED: Craig Stuart Sapp
!!!EEV: 2024/03/28
!!!title: @{OPR} (@{SCA}), @{OTL}
!!!filter-modern: modori -m | autostem -r
